Breeze Round Light/actions/16/activities.svg

<svg version="1.1" viewBox="0 0 16 16" xmlns="http://www.w3.org/2000/svg">
    <style type="text/css" id="current-color-scheme">
        .ColorScheme-Text {
            color:#232629;
        }
    </style>
    <path d="m4 2v4h8v-4zm3 1h2v2h-2zm-5 4v2h12v-2zm2 3v4h8v-4zm4 1c0.5522847 0 1 0.447715 1 1s-0.4477153 1-1 1-1-0.447715-1-1 0.4477153-1 1-1z" class="ColorScheme-Text" fill="currentColor"/>
</svg>

<svg version="1.1" viewBox="0 0 16 16" xmlns="http://www.w3.org/2000/svg">
    <style type="text/css" id="current-color-scheme">.ColorScheme-Text {color:#fcfcfc;}</style>
    <path d="M 5,2 C 4,2 4,3 4,3 v 3 h 8 V 3 C 12,3 12,2 11,2 10,2 6,2 5,2 Z M 7,3 H 9 V 5 H 7 Z M 2,7 V 9 H 14 V 7 Z m 2,3 v 3 c 0,0 0,1 1,1 1,0 5,0 6,0 1,0 1,-1 1,-1 v -3 z m 4,1 c 0.5522847,0 1,0.447715 1,1 0,0.552285 -0.4477153,1 -1,1 -0.5522847,0 -1,-0.447715 -1,-1 0,-0.552285 0.4477153,-1 1,-1 z" class="ColorScheme-Text" fill="currentColor"/>
</svg>
